X:2135
L:1/8
M:6/8
K:Bb
 BdB FDF | B3 F2 B | c2 d e2 d | cdB ABc | BdB FDF | GED Ccd | dgB ecA | B3 B,3 :: B,Bd fdB | 
 Ace gec | dBf eca | bfe dec | BdB FDF | GED Cce | dfB ecA | B3 B,3 :|

